X:640
T: Tyrrell's Pass
C: Brendan Ring
S: "Yes I Said Yes I Will Yes" (Lister/Mulvaney/Bumpus)
L: 1/8
M: 6/8
R: jig
K: G
z | B2e edB | edB BAG | B2e edB | edB A3 |
B2e edB | edB BAG | BAB AGE | DFA G2 :|
D | G2g ged | ged BAG | G2g ged | ged A3 |
G2g ged | ged BAG | BAB AGE | DFA G2 :|
